favicons/favicon-dark.svg

<svg width="16" height="16" viewBox="0 0 16 16" fill="none" xmlns="http://www.w3.org/2000/svg">
<path d="M8 16C12.4183 16 16 12.4183 16 8C16 3.58172 12.4183 0 8 0C3.58172 0 0 3.58172 0 8C0 10.7648 1.40255 13.202 3.53496 14.639C3.94478 14.9152 3.53496 13.7928 4.25 12C4.7841 10.6608 6.05999 7.53388 6.07462 6.79515C6.08491 6.26073 5.88206 5.80061 5.67416 5.32907C5.62941 5.22755 5.58437 5.1254 5.54123 5.02197C5.14991 5.79043 3.77678 6.95069 2.85136 6.76471C1.56578 6.50886 2.43196 4.98845 2.96677 4.4062C3.02331 4.34438 3.08354 4.27632 3.14695 4.20467C3.64464 3.64229 4.33828 2.85849 4.98282 3.12936C5.29499 3.25975 6.07273 3.83043 6.6901 4.31987C6.6901 4.31987 6.67216 4.27167 6.66202 4.24033C6.38018 3.36951 5.99192 2.34419 7.80265 2.19286C8.26264 2.15368 10.5782 2.17044 10.0767 3.047C9.87521 3.39858 8.93814 3.4968 8.2137 3.57274C7.9086 3.60473 7.64121 3.63276 7.48237 3.67409C7.55804 4.09366 7.60308 4.60407 7.60953 5.07046C8.68351 5.19274 9.36539 5.1018 10.1671 4.99488C10.5657 4.94172 10.994 4.8846 11.5148 4.84779C12.0351 4.81075 12.75 4.75 13 5C13.1653 5.16533 13.2036 5.57457 13.1451 5.93439C12.8978 7.42506 11.4646 8.72839 10.333 9.75735C10.1418 9.93126 9.95892 10.0976 9.7921 10.2554C8.15061 11.8048 7.26957 13.3991 7.35949 15.3823C7.36848 15.5706 7.34766 15.9894 7.58398 15.9894C7.72176 15.9964 7.86046 16 8 16Z" fill="#F7FAFC"/>
</svg>

<svg width="16" height="16" viewBox="0 0 16 16" fill="#F7FAFC" xmlns="http://www.w3.org/2000/svg"><path d="M8 16a8 8 0 10-4.465-1.361c.41.276 0-.846.715-2.639.534-1.34 1.81-4.466 1.825-5.205.01-.534-.193-.994-.4-1.466-.046-.101-.09-.204-.134-.307-.391.768-1.764 1.929-2.69 1.743-1.285-.256-.419-1.777.116-2.359l.18-.201c.498-.563 1.191-1.347 1.836-1.076.312.13 1.09.701 1.707 1.19 0 0-.018-.047-.028-.079-.282-.87-.67-1.896 1.14-2.047.46-.04 2.776-.023 2.275.854-.202.352-1.139.45-1.863.526-.305.032-.573.06-.732.101.076.42.121.93.128 1.396 1.074.123 1.755.032 2.557-.075.399-.053.827-.11 1.348-.147C12.035 4.81 12.75 4.75 13 5c.165.165.204.575.145.934-.247 1.491-1.68 2.794-2.812 3.823-.191.174-.374.34-.54.498-1.642 1.55-2.523 3.144-2.434 5.127.01.189-.011.607.225.607.138.007.276.011.416.011z"/></svg>
